X: 15259
T: Girl Of The House, The
R: jig
M: 6/8
K: Dmixolydian
AG|:FAD DFG|ADA GEA|D3 AGE|FAD DAG|
FDF ~G3|AGA cde|dcA GEA|1 DED D2A:|2 DED DAB||
|:c4 AF|~G4 FG|AdB cAG|Ad^c d2e|
fed cAG|FEF GEA|dcA GEA|1 DED DAB:|2 DED D2A||

